icon-themes/sifr_svg/cmd/sc_insertneutralparagraph.svg

<svg viewBox="0 0 16 16" xmlns="http://www.w3.org/2000/svg"><g fill="#555753"><path d="m3 1c0 .5522847-.4477153 1-1 1v1h1v3h1v-5zm4 1v2h8v-2zm0 3v2h4v-2z" opacity=".35"/><path d="m0 8v2c-.00000006 2.209139 1.790861 4 4 4h.5625l-.28125.28125c-.18811.18818-.28125.45344-.28125.71875v1h1c.26529 0 .53057-.09304.71875-.28125l2-2 .28125-.28125v-.875l-.28125-.28125-2-2c-.18817-.18814-.45344-.28122-.71875-.28125h-1v1c0 .2653.0931.53058.28125.71875l.28125.28125h-.5625c-1.1045695 0-2.0000001-.895431-2-2v-2zm9 2v2h6v-2zm0 3v2h4v-2z"/></g></svg>

<svg xmlns="http://www.w3.org/2000/svg" viewBox="0 0 16 16">
  <path
     style="fill:#555753;opacity:0.35"
     d="M 3,1 C 3,1.5522847 2.5522847,2 2,2 V 3 H 3 V 6 H 4 V 1 Z m 4,1 v 2 h 8 V 2 Z m 0,3 v 2 h 4 V 5 Z"
     />
  <path
     style="fill:#555753"
     d="M 0 8 L 0 10 C -5.5228476e-08 12.209139 1.790861 14 4 14 L 4.5625 14 L 4.28125 14.28125 C 4.09314 14.46943 4 14.73469 4 15 L 4 16 L 5 16 C 5.26529 16 5.53057 15.90696 5.71875 15.71875 L 7.71875 13.71875 L 8 13.4375 L 8 12.5625 L 7.71875 12.28125 L 5.71875 10.28125 C 5.53058 10.09311 5.26531 10.00003 5 10 L 4 10 L 4 11 C 4 11.2653 4.0931 11.53058 4.28125 11.71875 L 4.5625 12 L 4 12 C 2.8954305 12 1.9999999 11.104569 2 10 L 2 8 L 0 8 z M 9 10 L 9 12 L 15 12 L 15 10 L 9 10 z M 9 13 L 9 15 L 13 15 L 13 13 L 9 13 z "
     />
</svg>
